X:45
T:Collier's
R:reel
Z:Transcribed by Dave Marshall
M:C|
K:Dmix
|: F3G A3B | c2dB cBAG | Add^c d2 (3efg | fdef dcAG |
F3G A3B | c2dB cBAG | Addc ABAG | EFGE FDD2 :|
|: f2 (3efg fded | A~d3 Adde | f2 (3efg fded | A3B c3d |
eaag efge | dfed cAAG | Addc ABAG | EFGE FDD2 :|
